X:1
T:Tell the Blessèd Story
T:Tell the Blessèd Story
T:Haldor Lillenas
T:Haldor Lillenas, 1920
T:Courtesy of the Cyber Hymnal™ Public Domain
T:Courtesy of the Cyber Hymnal™ Public Domain
C:Haldor Lillenas
Z:Courtesy of the Cyber Hymnal™
Z:Public Domain
%%score ( 1 2 ) ( 3 4 )
L:1/8
Q:1/4=105
M:4/4
K:C
V:1 treble 
V:2 treble 
V:3 bass 
V:4 bass 
V:1
 [EG][EG][EG][EG] [Ec][EG][DF][CE] | D2 [DF]2 [FA]4 | [FB][FB][FB][FB] [FB][FA][EG][B,F] | [CE]8 | %4
w: 1.~Church of God, a- wak- en; heed the|Lord’s com- mand,|Tell the bless- èd stor- y of the|cross.|
w: 2.~Has not He com- mis- sioned you the|news to bear?|Tell the bless- èd stor- y of the|cross.|
w: 3.~Stand no long- er i- dle while the|mo- ments fly.|Tell the bless- èd stor- y of the|cross.|
w: 4.~Pub- lish un- to all the world re-|deem- ing grace.|Tell the bless- èd stor- y of the|cross.|
 [EG][EG][EG][EG] [Ec][EG][DF][CE] | D2 [DF]2 [FA]4 | [FB][FB][FB][FB] [FB][FG][FA][FB] | [Ec]8 || %8
w: Fields are white for har- vest- ing on|ev- ery hand,|Tell the bless- èd stor- y of the|cross.|
w: “Go ye in- to all the world,” and|ev- ery- where|Tell the bless- èd stor- y of the|cross.|
w: Mul- ti- tudes in heath- en dark- ness|live and die.|Tell the bless- èd stor- y of the|cross.|
w: Un- til in the home of rest you|find your place.|Tell the bless- èd stor- y of the|cross.|
"^Refrain" [Ec][Ec][Ec][Ec] [Ec][CE][DF][EG] | [FA]2 [GA]2 [^Fd]2 [Fc]2 | %10
w: ||
w: ||
w: ||
w: ||
 [FB][FB][FB][FB] [FB][FA][EG][B,F] | [CE]2 [FA]2 [EG]4 | [Ec][Ec][Ec][Ec] [Ec][CE][DF][EG] | %13
w: |||
w: |||
w: |||
w: |||
 [FA]2 [GA]2 [^Fd]2 [Fc]2 | [FB][FB][FB][FB] [FB][FG][FA][FB] | [Ec]8 |] %16
w: |||
w: |||
w: |||
w: |||
V:2
 x8 | D2 x6 | x8 | x8 | x8 | x8 | x8 | x8 || x8 | x8 | x8 | x8 | x8 | x8 | x8 | x8 |] %16
V:3
 [C,C][C,C][C,C][C,C] [C,G,][C,G,][D,G,][E,G,] | [F,A,]2 [F,A,]2 [F,A,]4 | %2
w: ~ ~ ~ ~ ~ ~ ~ ~|~ ~ ~|
 G,G,[G,D][G,D] [G,D][G,C][G,B,]G, | [C,G,]8 | [C,C][C,C][C,C][C,C] [C,G,][C,G,][D,G,][E,G,] | %5
w: ~ ~ ~ ~ ~ ~ ~ ~|~|~ ~ ~ ~ ~ ~ ~ ~|
 [F,A,]2 [F,A,]2 [F,C]4 | G,G,G,G, [G,,G,][G,,G,][G,,G,][G,,G,] | [C,G,]8 || %8
w: ~ ~ ~|~ ~ ~ ~ ~ ~ ~ ~|~|
 [C,G,][C,G,][C,G,][C,G,] [C,G,][C,G,][C,C][C,C] | [F,C]2 [E,^C]2 [D,D]2 [D,D]2 | %10
w: Tell the bless- èd sto- ry of the|cross of Je- sus,|
 [G,D][G,D][G,D][G,D] [G,D][G,C][G,B,]G, | [C,G,]2 [C,C]2 [C,C]4 | %12
w: Tell the bless- èd sto- ry of the|hal- lowed cross.|
 [C,G,][C,G,][C,G,][C,G,] [C,G,][C,G,][C,C][C,C] | [F,C]2 [E,^C]2 [D,D]2 [D,D]2 | %14
w: Un- til ev- ery na- tion learns of|full sal- va- tion,|
 [G,D][G,D][G,D][G,D] [G,D][G,B,][G,C][G,D] | [C,C]8 |] %16
w: Tell the bless- èd sto- ry of the|cross.|
V:4
 x8 | x8 | G,G, x4 G, x | x8 | x8 | x8 | G,G,G, x5 | x8 || x8 | x8 | x8 | x8 | x8 | x8 | x8 | x8 |] %16

